X:1
T:Pretty Blue Eyes (Transcribed)
C:Teddy Randazzo and Bob Weinstein
Z:All Rights Reserved
L:1/8
M:4/4
K:F
V:1 treble nm="Melody" snm="Melody"
%%MIDI channel 9
%%MIDI program 24
V:1
"F " z2 z f2 g fe |"Dmin" d4 AG FA |"F " c2 z f2 g fe |"Dmin" d4 AG FA |"F " c2 c2 c2 Ac | %5
w: ||||* Thought ~I ~was ~in|
"Dmin" d2 AA- A4 |"F " z2 c2 c2 Ac |"Dmin" d2 A A2 G AG |"Bb " FG F6 |"C " z4 z2 FG |"F " Ac A6 | %11
w: ~love ~be- fore *|and ~then ~you ~moved|~in next ~do- or pret- ty|blu- e ~eyes,|pret- ty|~blu- e ~eyes.|
"Dmin" z8 |"F " z2 cc c2 Ac |"Dmin" d2 AA- A4 |"F " z2 c2 cA c2 |"Dmin" d2 A A2 G AG |"Bb " FG F6 | %17
w: |All the guys from ~the|~neigh- bour- hood *|keep ~say- ing you|sure ~look ~go- od with your|blu- e ~eyes,|
"C " z4 z2 FG |"F " Ac A2 fg fg | a f3 ag fe |"Dmin" d2 d2 d2 cd |"Amin" A2 c4 z2 | %22
w: pret- ty|~blu- e ~eyes. * * * *||* Saw ~you ~from ~my|~win- dow.|
"Bb " z2 d2 d2 cd |"Amin" A2 cd c4 |"Bb " z2 dd d2 cd |"Amin" e2"C " c6 |"G7" z2 ff fe d2 | %27
w: My ~heart ~skipped ~a|b\- e\- a\- t.|Gon- na ~sit ~by ~your|~door step|so ~that ~I \- ~can|
"C7" e2 (3ded c2 AB |"F " cc- c4 Ac |"Dmin" d2 AA- AA BA |"F " cc- c4 Ac |"Dmin" d2 A A2 G AG | %32
w: ~m- e\- \- e\- t. Pret- ty|blue eyes * please ~come|~out ~to- day * so I can|tell you * what I|~have to sa- y that I|
"Bb " FG F6 |"C " G2 G4 FG |"F " Ac A2 fg fg | a f3 ag fe |"Dmin" d2 d2 d2 cd |"Amin" A2 c4 z2 | %38
w: lo- ve you,|love you, pret- ty|blu- e eyes. * * * *||* Saw ~you ~from ~my|~win- dow.|
"Bb " z2 d2 d2 cd |"Amin" A2 cd c4 |"Bb " z2 dd d2 cd |"Amin" e2"C " c6 |"G7" z2 ff fe d2 | %43
w: My ~heart ~skipped ~a|b\- e\- a\- t.|Gon- na ~sit ~by ~your|~door step|so ~that ~I \- ~can|
"C7" e2 (3ded c2 AB |"F " cc- c4 Ac |"Dmin" d2 AA- AA BA |"F " cc- c4 Ac |"Dmin" d2 A A2 G AG | %48
w: ~m- e\- \- e\- t. Pret- ty|blue eyes * please ~come|~out ~to- day * so I can|tell you * what I|~have to sa- y that I|
"Bb " FG F6 |"C " G2 G4 FG |"F " Ac A2 fg fe |"Dmin" d2 AA- A2 FG |"F " Ac A2 fg fe | %53
w: lo- ve you,|love you, pret- ty|blu- e eyes. * * * *|* * * * Pret- ty|blu- e eyes. * * * *|
"Dmin" d2 AA- A2 FG |"F " Ac A2 fg fe |"Dmin" d2 AA- A2 FG |"F " Ac A2 fg fe |"Dmin" d2 AA- A2 fg | %58
w: * * * * Pret- ty|blu- e eyes. * * * *|* * * * Pret- ty|blu- e eyes. * * * *||
"F " f8 |] %59
w: |

